src/assets/filled/MessageProgramming.svg

<svg width="24" height="24" viewBox="0 0 24 24"  xmlns="http://www.w3.org/2000/svg">
<path d="M16 1.96973H8C4 1.96973 2 3.96973 2 7.96973V12.9697C2 17.9697 4 18.9697 8 18.9697H8.5C8.78 18.9697 9.14 19.1497 9.3 19.3697L10.8 21.3697C11.46 22.2497 12.54 22.2497 13.2 21.3697L14.7 19.3697C14.89 19.1197 15.19 18.9697 15.5 18.9697H16C20 18.9697 22 16.9697 22 12.9697V7.96973C22 3.96973 20 1.96973 16 1.96973ZM8.53 12.1697C8.82 12.4597 8.82 12.9397 8.53 13.2297C8.38 13.3797 8.19 13.4497 8 13.4497C7.81 13.4497 7.62 13.3797 7.47 13.2297L5.47 11.2297C5.18 10.9397 5.18 10.4597 5.47 10.1697L7.47 8.16973C7.76 7.87973 8.24 7.87973 8.53 8.16973C8.82 8.45973 8.82 8.93973 8.53 9.22973L7.06 10.6997L8.53 12.1697ZM13.69 8.65973L11.69 13.3297C11.57 13.6097 11.29 13.7797 11 13.7797C10.9 13.7797 10.8 13.7597 10.7 13.7197C10.32 13.5597 10.14 13.1197 10.31 12.7297L12.31 8.05973C12.47 7.67973 12.91 7.49973 13.3 7.66973C13.68 7.83973 13.85 8.27973 13.69 8.65973ZM18.53 11.2297L16.53 13.2297C16.38 13.3797 16.19 13.4497 16 13.4497C15.81 13.4497 15.62 13.3797 15.47 13.2297C15.18 12.9397 15.18 12.4597 15.47 12.1697L16.94 10.6997L15.47 9.22973C15.18 8.93973 15.18 8.45973 15.47 8.16973C15.76 7.87973 16.24 7.87973 16.53 8.16973L18.53 10.1697C18.82 10.4597 18.82 10.9397 18.53 11.2297Z" />
</svg>

<?xml version="1.0" encoding="UTF-8"?>
<svg width="24" height="24" viewBox="0 0 24 24" xmlns="http://www.w3.org/2000/svg">
 <path d="m16 1.9697h-8c-4 0-6 2-6 6v5c0 5 2 6 6 6h0.5c0.28 0 0.64 0.18 0.8 0.4l1.5 2c0.66 0.88 1.74 0.88 2.4 0l1.5-2c0.19-0.25 0.49-0.4 0.8-0.4h0.5c4 0 6-2 6-6v-5c0-4-2-6-6-6zm-7.47 10.2c0.29 0.29 0.29 0.77 0 1.06-0.15 0.15-0.34 0.22-0.53 0.22s-0.38-0.07-0.53-0.22l-2-2c-0.29-0.29-0.29-0.77 0-1.06l2-2c0.29-0.29 0.77-0.29 1.06 0s0.29 0.77 0 1.06l-1.47 1.47 1.47 1.47zm5.16-3.51-2 4.67c-0.12 0.28-0.4 0.45-0.69 0.45-0.1 0-0.2-0.02-0.3-0.06-0.38-0.16-0.56-0.6-0.39-0.99l2-4.67c0.16-0.38 0.6-0.56 0.99-0.39 0.38 0.17 0.55 0.61 0.39 0.99zm4.84 2.57-2 2c-0.15 0.15-0.34 0.22-0.53 0.22s-0.38-0.07-0.53-0.22c-0.29-0.29-0.29-0.77 0-1.06l1.47-1.47-1.47-1.47c-0.29-0.29-0.29-0.77 0-1.06s0.77-0.29 1.06 0l2 2c0.29 0.29 0.29 0.77 0 1.06z"/>
</svg>
